X:153
T:To Avert From Men God's Wrath
%%stretchlast false
M:4/4
L:1/4
K:Eb clef=C1
"^I"[E,G,B,E] [E,G,B,E] "^V"[B,,B,DF] "^I"[E,B,EG] | "^IV"[A,,CEA]3/2 [A,,CEA]/ "^I"[E,B,EG]2 | [E,G,B,E] "^vi"[C,G,CE] "^V"[B,,B,DF] "^I"[E,B,EG] | "^ii7¹"[A,,CEF] "^V"[B,,B,DF] "^I"[E,G,E]2 | [E,G,E] "^vi"[C,CEG] "^V"[B,,DFB] "^I"[E,EGB] | "^IV"[A,CEc] "^viiø7²"[A,DFc] "^I"[E,EGB]2 | "^I¹"[G,B,E] "^I"[E,B,EG] "^V¹"[D,B,FB] "^iii"[G,B,DB] | "^vi7¹"[E,B,Gc] "^II"[F,=A,Fc]/ "^II7"[F,=A,Ec]/ "^V"[B,,B,DB]2 | "^I¹"[G,B,E] [G,B,E] "^vii°¹"[F,A,DF] "^I"[E,B,EG] | "^IV"[A,,CEA]3/2 [A,,CEA]/ "^I"[E,B,EG]2 | "^I¹"[G,B,E] "^vii°¹"[F,A,DF] "^I"[E,B,EG] "^ii¹"[A,,A,CF] | "^I²"[B,,G,B,E] "^V"[B,,F,B,D] "^I"[E,G,B,E]2 |]
